X:1
T:Title
%%score { 1 | ( 2 3 ) }
L:1/8
Q:1/4=100
M:4/4
K:Ab
V:1 treble nm="Grand Piano"
V:2 bass 
V:3 bass 
V:1
 [Ec]2 [Ec]>[Ec] [Ec]2 [EB][EA] | G>B A>F [DF]2 [CE]2 | [DF]2 [DF]>[DG] [CA]2 [Ec]2 | [EB]6 z2 | %4
w: Hubert~P.~Main * * * * *||||
 [Ec]2 [Ec]>[Ec] [Ec]2 [EB][EA] | G>B A>F [DF]2 [CE]2 | [DF]>[EG] [EA]>[Fd] [Ec]2 [DB]2 | %7
w: |||
 [CA]6 z2 | B2 B2 B2 [GB]2 | [FB]>[Fc] [FB]>[=DA] [EA]2 [EG]2 | [=Ec]2 [Fc]2 [Gc]2 [Ec]2 | %11
w: ||||
[M:9/8] [Fc]>[FB][Ac]- [Ac]/[A=d]/ [Ge]2 _d3 |[M:4/4] [Ec]2 [Ec]>[Ec] [Ec]2 [EB][EA] | %13
w: ||
 G>B A>F [DF]2 [CE]2 | [DF]>[EG] [EA]>[Fd] [Ec]2 [DB]2 |[M:8/4] [CA]8 z8 |] %16
w: |||
V:2
 [A,,A,]2 [A,,A,]>[A,,A,] [A,,A,]2 [C,A,][C,A,] | %1
 [E,B,D]>[E,G,D] [F,A,C]>[D,A,D] [A,,A,]2 [A,,A,]2 | [D,A,]2 [D,A,]>[B,,E,] [A,,E,]2 [A,,A,]2 | %3
 [E,G,]6 z2 | [A,,A,]2 [A,,A,]>[A,,A,] [A,,A,]2 [C,A,][C,A,] | %5
 [E,B,D]>[E,G,D] [F,A,C]>[D,A,D] [A,,A,]2 [A,,A,]2 | [D,A,]>[D,B,] [C,A,]>[D,A,] [E,A,]2 [E,G,]2 | %7
 [A,,A,]6 z2 | [E,G,E]2 [F,A,=D]2 [G,B,E]2 [E,B,]2 | %9
 [=D,B,]>[D,B,] [D,B,]>[B,,B,] [E,B,]2 [E,B,]2 | [C,C]2 [=D,G,]2 [=E,C]2 [C,B,]2 | %11
[M:9/8] z3 z B,2 z3 |[M:4/4] [A,,A,]2 [A,,A,]>[A,,A,] [A,,A,]2 [C,A,][C,A,] | %13
 [E,B,D]>[E,G,D] [F,A,C]>[D,A,D] [A,,A,]2 [A,,A,]2 | [D,A,]>[D,B,] [C,A,]>[D,A,] [E,A,]2 [E,G,]2 | %15
[M:8/4] [A,,A,]8 z8 |] %16
V:3
 x8 | x8 | x8 | x8 | x8 | x8 | x8 | x8 | x8 | x8 | x8 | %11
[M:9/8] [F,A,]>[F,A,][B,,B,]- [B,,B,]/[B,,B,]/ E,2- [E,G,E]3 |[M:4/4] x8 | x8 | x8 |[M:8/4] x16 |] %16

